X:945
T:Reel 945
M:4/4
K:Dmaj
L:1/8
AG|F>D (3DDD FDAG|F>D (3DDD D2GB|GEEE =cEcE|G>E (3EEE B2AG|F>D (3DDD FDAG|F>D (3DDD A2GF|Geed cABA|FDEC D2|FA|d2dc d2FA|dcdB A2AF|G2BE E2ed|Eeed cBAG|F2dc d2cA|dcdB A2AF|G2BG F2AF|EDCE D2|
